X: 1
T: The Queen Of The Rushes
R: jig
M: 6/8
L: 1/8
K: Dmaj
AG|:F2D DEF|G2E EFG|F2D DAF|GED DAG|
F2D DEF|G2E EFG|ABA GEA|1 DED DAG:|2 DED D2B||
|:c2A Bcd|ecA AGE|d2e fed|ecA A2B|
c2A Bcd|ecA AGE|~F3 GEA|1 DED D2B:|2 DED DFG||
~A3 dAF|~A3 dAF|~G3 EFG|EFG EFG|
~A3 dAF|~A3 dAG|~F3 GEA|DED DFG|
~A3 dAF|~A3 dAF|~G3 EFG|=cEE EFG|
~A3 dAF|~A3 dAG|~F3 GEA|DED D||


Tune 710	Setting 17289

